X:1
T:Ha én cica volnék
O:Magyar népdal
M:2/4
Q:1/4=84
L:1/8
K:C
GG GA | G2 E2 | GG GA | G2 E2 |
w: Ha én ci-ca vol-nék, száz e-ge-ret fog-nék,
GG GA | GF E2 | ED ED | CC C2 |]
w: de én ci-ca nem va-gyok, e-ge-ret sem fog-ha-tok.
